X: 36024
T: Scan Tester's
R: polka
M: 2/4
K: Gmajor
B/A/|G G G/A/B/c/|d2 dB|cd ef|g2 gb|
ag fe|ed B>d|ed cB|A2 A/c/B/A/|
G G G/A/B/c/|d2 dB|cd ef|g2 gb|
ag fe|ed B>A|GB c/B/ A|G3||
|:B/A/|G>A Bc|ed BB|A>B c/B/A/c/|ed BA|
G>A Bc|ed Bg|f/e/d/c/ BA|G3:|

